X: 411
T:Si vous n'avez
N: Derived from Jos3010-Si_vous_navez.krn
C: Josquin des Prez
%%abc-version 2.0
%%abcx-abcm2ps-target-version 5.9.1 (29 Sep 2008)
%%abc-creator hum2abc beta
%%abcx-conversion-date 2019/02/12 16:15:55
%%abc-edited-by Jesse Rodin
%%abc-edited-by Will Watson 08/09/2011
%%abcx-initial-encoding-date 2011/09/08/
%%humdrum-veritas 244960041
%%humdrum-veritas-data 892233348
%%linebreak <none>
%%barnumbers 0
L: 1/4
M: 2/1
Q: 1/2=120
V: 1 clef=treble
V: 2 clef=treble-8
V: 3 clef=treble-8
V: 4 clef=treble-8
V: 5 clef=bass
V: 6 clef=bass
K: C
[V:1] z4d4 | 
[V:2] g4g2g2 | 
[V:3] z8 | 
[V:4] z8 | 
[V:5] z8 | 
[V:6] z8 | 
[V:1] d2d2c4- | 
[V:2] f6ed | 
[V:3] z8 | 
[V:4] z8 | 
[V:5] z8 | 
[V:6] z8 | 
[V:1] c2BAB2c2 | 
[V:2] e2f2g2e2 | 
[V:3] z8 | 
[V:4] z8 | 
[V:5] z8 | 
[V:6] z8 | 
[V:1] d4B4 | 
[V:2] d8 | 
[V:3] z4d4 | 
[V:4] z8 | 
[V:5] G,4G,2G,2 | 
[V:6] z8 | 
[V:1] A4z2A2 | 
[V:2] z4f4 | 
[V:3] d2d2c4- | 
[V:4] z8 | 
[V:5] F,6E,D, | 
[V:6] z8 | 
[V:1] G2A2D2GA | 
[V:2] e2c2g4 | 
[V:3] c2BAB2c2 | 
[V:4] z8 | 
[V:5] E,2F,2G,2C,2 | 
[V:6] z8 | 
[V:1] Bcd4D2 | 
[V:2] z2G2G2G2 | 
[V:3] d4B4 | 
[V:4] z4d4 | 
[V:5] G,,2G,,2G,,2G,,2 | 
[V:6] G,4G,2G,2 | 
[V:1] F3GA2A2 | 
[V:2] A4z2e2 | 
[V:3] A8 | 
[V:4] d2d2c4- | 
[V:5] D,4z2A,,2 | 
[V:6] F,6E,D, | 
[V:1] A2A2G2c2 | 
[V:2] e2e2e4 | 
[V:3] z8 | 
[V:4] c2BAB2c2 | 
[V:5] A,,2A,,2E,2A,,2 | 
[V:6] E,2F,2G,2E,2 | 
[V:1] B2A4^G2 | 
[V:2] f4e4 | 
[V:3] z8 | 
[V:4] d4B4 | 
[V:5] D,4E,4 | 
[V:6] D,4z4 | 
[V:1] A4z2E2 | 
[V:2] c2A2c3d | 
[V:3] z4c4 | 
[V:4] A8 | 
[V:5] A,,4z2A,,2 | 
[V:6] z8 | 
[V:1] E2E2G2G2 | 
[V:2] e8- | 
[V:3] c2c2B4- | 
[V:4] z8 | 
[V:5] C,3D,E,4- | 
[V:6] z2E,2E,2E,2 | 
[V:1] G2G2F2D2 | 
[V:2] e4z4 | 
[V:3] B2AGA2B2 | 
[V:4] z8 | 
[V:5] E,4z4 | 
[V:6] G,3F,/E,/D,2G,2 | 
[V:1] E4C3D | 
[V:2] z8 | 
[V:3] c4A4 | 
[V:4] z4c4 | 
[V:5] z4A,,4 | 
[V:6] C,4z4 | 
[V:1] E3FG4- | 
[V:2] z2e2e2e2 | 
[V:3] G8 | 
[V:4] c2c2B4- | 
[V:5] C,3D,E,F,G,2- | 
[V:6] z2E,2E,2E,2 | 
[V:1] G4z2D2 | 
[V:2] d2d2f4 | 
[V:3] z8 | 
[V:4] B2AGA2B2 | 
[V:5] G,2F,E,D,2D,2 | 
[V:6] G,2G,2F,4 | 
[V:1] E2G4^F2 | 
[V:2] e4d4- | 
[V:3] z8 | 
[V:4] c4A4 | 
[V:5] C,4D,4 | 
[V:6] G,4D,4 | 
[V:1] G8 | 
[V:2] d4z2d2 | 
[V:3] z4D4 | 
[V:4] G8 | 
[V:5] G,,4G,,4 | 
[V:6] z8 | 
[V:1] z4z2D2 | 
[V:2] c2A2B2B2 | 
[V:3] E2F2G4- | 
[V:4] z8 | 
[V:5] C,2D,2G,,4 | 
[V:6] z4G,,4 | 
[V:1] E2E2D2C2 | 
[V:2] c2c2A4- | 
[V:3] G2FEF2E2 | 
[V:4] z8 | 
[V:5] z8 | 
[V:6] C,2C,2D,2A,,2 | 
[V:1] D2F4ED | 
[V:2] A4z4 | 
[V:3] F4G4 | 
[V:4] z4D4 | 
[V:5] z8 | 
[V:6] D,3C,B,,4 | 
[V:1] C4z2D2 | 
[V:2] z4B4 | 
[V:3] A4z4 | 
[V:4] E2F2G4- | 
[V:5] z4G,,4 | 
[V:6] A,,4z4 | 
[V:1] E2E2D2C2 | 
[V:2] c2c2A4- | 
[V:3] z8 | 
[V:4] G2FEF2E2 | 
[V:5] C,2C,2D,2A,,2 | 
[V:6] z8 | 
[V:1] D2F4ED | 
[V:2] A4z2D2 | 
[V:3] z8 | 
[V:4] F4G4 | 
[V:5] D,3C,B,,4 | 
[V:6] z8 | 
[V:1] C4z4 | 
[V:2] E2F2G2d2 | 
[V:3] z4G4 | 
[V:4] A4z4 | 
[V:5] A,,4z4 | 
[V:6] z4G,,4 | 
[V:1] D4A2A2 | 
[V:2] f2f2e2c2 | 
[V:3] A2B2c4- | 
[V:4] z8 | 
[V:5] z8 | 
[V:6] D,2D,2A,,3B,, | 
[V:1] GFG2G2A2- | 
[V:2] e2e2d4- | 
[V:3] c2BAB2A2 | 
[V:4] z8 | 
[V:5] z8 | 
[V:6] C,D,E,F,G,2F,2 | 
[V:1] AGG4FE | 
[V:2] d4z4 | 
[V:3] B4c4 | 
[V:4] z4G4 | 
[V:5] z4z2C,2 | 
[V:6] G,3F,E,4 | 
[V:1] F2F2A2A2 | 
[V:2] z2f2e2c2 | 
[V:3] d4z4 | 
[V:4] A2B2c4- | 
[V:5] F,2D,2A,,3B,, | 
[V:6] D,4z4 | 
[V:1] GFG2G2A2- | 
[V:2] e4d4- | 
[V:3] z8 | 
[V:4] c2BAB2A2 | 
[V:5] C,D,E,F,G,2F,2 | 
[V:6] z8 | 
[V:1] AGG4FE | 
[V:2] d4z4 | 
[V:3] z8 | 
[V:4] B4c4 | 
[V:5] G,3F,E,4 | 
[V:6] z8 | 
[V:1] F4z2F2 | 
[V:2] z4z2A2 | 
[V:3] z4d4 | 
[V:4] d4z4 | 
[V:5] D,4z4 | 
[V:6] z4D,4 | 
[V:1] G2A2DEFG | 
[V:2] e2A2d4 | 
[V:3] c4B4 | 
[V:4] z8 | 
[V:5] z8 | 
[V:6] E,2F,2G,2D,E, | 
[V:1] ABA3GG2- | 
[V:2] z2A2B3c | 
[V:3] A2c2B2G2 | 
[V:4] z8 | 
[V:5] z8 | 
[V:6] F,G,A,F,G,2E,2 | 
[V:1] G2^F2G2d2 | 
[V:2] d4B2B2 | 
[V:3] A4G4 | 
[V:4] z4d4 | 
[V:5] z4z2D,2 | 
[V:6] D,4G,,4 | 
[V:1] G2A2DEFG | 
[V:2] e2A2d4 | 
[V:3] z8 | 
[V:4] c4B4 | 
[V:5] E,2F,2G,2D,E, | 
[V:6] z8 | 
[V:1] ABA3GG2- | 
[V:2] z2A2B3c | 
[V:3] z8 | 
[V:4] A2c2B2G2 | 
[V:5] F,G,A,F,G,2E,2 | 
[V:6] z8 | 
[V:1] G2^F2G4 | 
[V:2] d4B4 | 
[V:3] z8 | 
[V:4] A4G4 | 
[V:5] D,4G,,4 | 
[V:6] z8 | 
[V:1] z2C2D2E2 | 
[V:2] z2c2B2G2 | 
[V:3] A4G4 | 
[V:4] z8 | 
[V:5] z8 | 
[V:6] A,,4B,,2C,2 | 
[V:1] A,B,CDEFE2- | 
[V:2] d2c2c3B | 
[V:3] F4E2G2 | 
[V:4] z8 | 
[V:5] z8 | 
[V:6] D,2A,,B,,C,D,E,C, | 
[V:1] EDD4^C2 | 
[V:2] A2G2A4 | 
[V:3] F2D2E4 | 
[V:4] z8 | 
[V:5] z8 | 
[V:6] D,2B,,2A,,4 | 
[V:1] D2A2D2E2 | 
[V:2] z2A2d2G2 | 
[V:3] D4z4 | 
[V:4] A4G4 | 
[V:5] z2A,,2B,,2C,2 | 
[V:6] D,,4z4 | 
[V:1] A,B,CDEFE2- | 
[V:2] d2c2c3B | 
[V:3] z8 | 
[V:4] F4E2G2 | 
[V:5] D,2A,,B,,C,D,E,C, | 
[V:6] z8 | 
[V:1] EDD4^C2 | 
[V:2] A2G2A4- | 
[V:3] z8 | 
[V:4] F2D2E4 | 
[V:5] D,2B,,2A,,4 | 
[V:6] z4z2C,2 | 
[V:1] D8- | 
[V:2] A8- | 
[V:3] z2D4F2 | 
[V:4] D8- | 
[V:5] D,,2D,2F,2F,2 | 
[V:6] F,2F,2D,2D,2 | 
[V:1] D8- | 
[V:2] A4z2F2 | 
[V:3] F2D2z2D2 | 
[V:4] D8- | 
[V:5] D,2D,2F,E,D,C, | 
[V:6] F,3E,D,C,_B,,A,, | 
[V:1] D8- | 
[V:2] G2_B4AG | 
[V:3] G4G4 | 
[V:4] D8- | 
[V:5] _B,,2G,,2B,,3C, | 
[V:6] G,,F,,G,,4F,,E,, | 
[V:1] D8- | 
[V:2] A4z2F2 | 
[V:3] F4z2D2 | 
[V:4] D8- | 
[V:5] D,4z2D,2 | 
[V:6] D,,2F,E,D,C,_B,,A,, | 
[V:1] D8 | 
[V:2] G2_B4AG | 
[V:3] G4G4 | 
[V:4] D8 | 
[V:5] _B,,2G,,2B,,3C, | 
[V:6] G,,F,,G,,4F,,E,, | 
[V:1] D8 |]  
[V:2] A8 |]  
[V:3] F8 |]  
[V:4] D8 |]  
[V:5] D,8 |]  
[V:6] D,,8 |]  



